images_sukapura_svg/cmd/32/closedocs.svg

<svg viewBox="0 0 32 32" xmlns="http://www.w3.org/2000/svg" xmlns:xlink="http://www.w3.org/1999/xlink"><linearGradient id="a" gradientUnits="userSpaceOnUse" x1="13" x2="13" y1="10" y2="26"><stop offset="0" stop-color="#68caf8"/><stop offset=".5" stop-color="#70cef9"/><stop offset=".71428573" stop-color="#79d3fb"/><stop offset=".9285714" stop-color="#67c1ed"/><stop offset="1" stop-color="#67bfea"/></linearGradient><g transform="translate(1)"><path d="m19.603826 6.4999999c-.324636.0000601-.635955.1240384-.865493.3446692l-4.728087 3.6553309h-10.510246c-.6760366.000065-.9999324.35028-1 1l-.033898 15h1.2241232 22.0342168.775558v-13-6c-.000068-.6497199-.323963-.9999351-1-1z" fill="#94ddff" fill-rule="evenodd" stroke="#15b0f5"/><path d="m2.466102 26.5h1.2233511 22.0351559.775391v-11.5c0-1-.5-1.5-1-1.5h-3-18.5c-1.2500514.0041-1.1959312-.168916-1.5 1z" fill="url(#a)" stroke="#15b0f5"/><g fill="#3bc1f1"><path d="m2.0019532 23.5h24.9999998l-.001953-.5h-25z"/><path d="m2.0000002 24.5h24.9999998l-.002-.5h-25z"/><path d="m2.0000002 25.5h24.9999998l-.002-.5h-25z"/></g></g></svg>

<?xml version="1.0" encoding="UTF-8" standalone="no"?>
<svg
   xmlns:dc="http://purl.org/dc/elements/1.1/"
   xmlns:cc="http://creativecommons.org/ns#"
   xmlns:rdf="http://www.w3.org/1999/02/22-rdf-syntax-ns#"
   xmlns:svg="http://www.w3.org/2000/svg"
   xmlns="http://www.w3.org/2000/svg"
   xmlns:sodipodi="http://sodipodi.sourceforge.net/DTD/sodipodi-0.dtd"
   xmlns:inkscape="http://www.inkscape.org/namespaces/inkscape"
   viewBox="0 0 32 32"
   version="1.1"
   id="svg25"
   sodipodi:docname="closedocs.svg"
   inkscape:version="0.92.3 (2405546, 2018-03-11)">
  <metadata
     id="metadata31">
    <rdf:RDF>
      <cc:Work
         rdf:about="">
        <dc:format>image/svg+xml</dc:format>
        <dc:type
           rdf:resource="http://purl.org/dc/dcmitype/StillImage" />
        <dc:title></dc:title>
      </cc:Work>
    </rdf:RDF>
  </metadata>
  <defs
     id="defs29" />
  <sodipodi:namedview
     pagecolor="#ffffff"
     bordercolor="#666666"
     borderopacity="1"
     objecttolerance="10"
     gridtolerance="10"
     guidetolerance="10"
     inkscape:pageopacity="0"
     inkscape:pageshadow="2"
     inkscape:window-width="1366"
     inkscape:window-height="685"
     id="namedview27"
     showgrid="true"
     inkscape:zoom="14.75"
     inkscape:cx="6.9019662"
     inkscape:cy="11.841248"
     inkscape:window-x="0"
     inkscape:window-y="0"
     inkscape:window-maximized="1"
     inkscape:current-layer="svg25">
    <inkscape:grid
       type="xygrid"
       id="grid838"
       spacingx="0.5"
       spacingy="0.5"
       empspacing="2" />
  </sodipodi:namedview>
  <linearGradient
     id="a"
     gradientUnits="userSpaceOnUse"
     x1="13"
     x2="13"
     y1="10"
     y2="26">
    <stop
       offset="0"
       stop-color="#68caf8"
       id="stop2" />
    <stop
       offset=".5"
       stop-color="#70cef9"
       id="stop4" />
    <stop
       offset=".71428573"
       stop-color="#79d3fb"
       id="stop6" />
    <stop
       offset=".9285714"
       stop-color="#67c1ed"
       id="stop8" />
    <stop
       offset="1"
       stop-color="#67bfea"
       id="stop10" />
  </linearGradient>
  <g
     id="g846"
     transform="translate(1)">
    <path
       id="path13"
       d="M 19.603826,6.4999999 C 19.27919,6.50006 18.967871,6.6240383 18.738333,6.8446691 L 14.010246,10.5 H 3.5 c -0.6760366,6.5e-5 -0.9999324,0.35028 -1,1 l -0.033898,15 H 3.6902252 25.724442 26.5 v -13 -6 c -6.8e-5,-0.6497199 -0.323963,-0.9999351 -1,-1 z"
       inkscape:connector-curvature="0"
       style="fill:#94ddff;fill-rule:evenodd;stroke:#15b0f5" />
    <path
       id="path15"
       d="M 2.466102,26.5 H 3.6894531 25.724609 26.5 V 15 c 0,-1 -0.5,-1.5 -1,-1.5 H 22.5 4 c -1.2500514,0.0041 -1.1959312,-0.168916 -1.5,1 z"
       inkscape:connector-curvature="0"
       style="fill:url(#a);stroke:#15b0f5"
       sodipodi:nodetypes="cccccccccc" />
    <path
       style="fill:#3bc1f1"
       sodipodi:nodetypes="ccccc"
       inkscape:connector-curvature="0"
       d="M 2.0019532,23.5 H 27.001953 L 27,23 H 2 Z"
       id="path17" />
    <path
       id="path831"
       d="M 2.0000002,24.5 H 27 L 26.998,24 h -25 z"
       inkscape:connector-curvature="0"
       sodipodi:nodetypes="ccccc"
       style="fill:#3bc1f1" />
    <path
       style="fill:#3bc1f1"
       sodipodi:nodetypes="ccccc"
       inkscape:connector-curvature="0"
       d="M 2.0000002,25.5 H 27 L 26.998,25 h -25 z"
       id="path833" />
  </g>
</svg>
